src/components/ReferenciasVisuais/aros/Meia cana.svg

<?xml version="1.0" encoding="UTF-8" standalone="no"?>
<!-- Created with Inkscape (http://www.inkscape.org/) -->

<svg
   width="235.13773mm"
   height="122.21669mm"
   viewBox="0 0 235.13773 122.21669"
   version="1.1"
   id="svg1"
   xml:space="preserve"
   xmlns:inkscape="http://www.inkscape.org/namespaces/inkscape"
   xmlns:sodipodi="http://sodipodi.sourceforge.net/DTD/sodipodi-0.dtd"
   xmlns="http://www.w3.org/2000/svg"
   xmlns:svg="http://www.w3.org/2000/svg"><sodipodi:namedview
     id="namedview1"
     pagecolor="#ffffff"
     bordercolor="#000000"
     borderopacity="0.25"
     inkscape:showpageshadow="2"
     inkscape:pageopacity="0.0"
     inkscape:pagecheckerboard="0"
     inkscape:deskcolor="#d1d1d1"
     inkscape:document-units="mm"><inkscape:page
       x="0"
       y="-1.0312836e-13"
       width="235.13773"
       height="122.21668"
       id="page2"
       margin="0"
       bleed="0" /></sodipodi:namedview><defs
     id="defs1" /><g
     inkscape:label="Camada 1"
     inkscape:groupmode="layer"
     id="layer1"
     transform="translate(12.380049,-106.09061)"><g
       style="overflow:visible;stroke-width:14.1732;stroke-dasharray:none"
       id="g3"
       transform="matrix(0.35277778,0,0,0.35277778,-70.314736,63.599148)"><path
         d="m 497.4904,459.7929 h -293.553 c -7.6081,0.2062 -16.7608,-3.3133 -23.0636,-9.7376 -6.3028,-6.4244 -9.7557,-15.7537 -9.5534,-23.5085 v -40.358 c 0,-16.3119 1.886,-32.5828 5.4889,-48.4987 2.7525,-12.1592 6.5071,-24.1113 11.4551,-35.4921 8.542,-19.647 20.6408,-37.5914 34.6595,-53.6818 14.0654,-16.144 30.0634,-30.4216 47.0439,-43.3427 19.909,-15.1495 41.1688,-28.4341 63.5188,-39.4296 50.9039,-25.0431 107.4639,-38.212 164.0038,-38.2091 56.5399,-0.003 113.0999,13.166 164.0037,38.2091 22.3501,10.9955 43.6098,24.2801 63.5189,39.4296 16.9805,12.9211 32.9785,27.1987 47.0439,43.3427 14.0187,16.0904 26.1175,34.0348 34.6595,53.6818 4.948,11.3808 8.7025,23.3329 11.455,35.4921 3.603,15.9159 5.489,32.1868 5.489,48.4987 v 40.358 c 0.2023,7.7548 -3.2505,17.0841 -9.5533,23.5085 -6.3028,6.4243 -15.4556,9.9438 -23.0637,9.7376 z"
         stroke="#000000"
         stroke-width="0.24"
         fill-opacity="0"
         id="path1"
         style="stroke-width:14.1732;stroke-dasharray:none" /></g></g></svg>

﻿<?xml version="1.0" encoding="UTF-8" standalone="no"?>
<!DOCTYPE svg PUBLIC "-//W3C//DTD SVG 1.1//EN" "http://www.w3.org/Graphics/SVG/1.1/DTD/svg11.dtd">
<svg width="1008pt" height="612pt" viewBox="0 0 1008 612" overflow="visible" version="1.1" xmlns="http://www.w3.org/2000/svg">
  <path d="M497.4904,459.7929 L203.9374,459.7929 C196.3293,459.9991 187.1766,456.4796 180.8738,450.0553 C174.571,443.6309 171.1181,434.3016 171.3204,426.5468 L171.3204,386.1888 C171.3204,369.8769 173.2064,353.606 176.8093,337.6901 C179.5618,325.5309 183.3164,313.5788 188.2644,302.198 C196.8064,282.551 208.9052,264.6066 222.9239,248.5162 C236.9893,232.3722 252.9873,218.0946 269.9678,205.1735 C289.8768,190.024 311.1366,176.7394 333.4866,165.7439 C384.3905,140.7008 440.9505,127.5319 497.4904,127.5348 C554.0303,127.5319 610.5903,140.7008 661.4941,165.7439 C683.8442,176.7394 705.1039,190.024 725.013,205.1735 C741.9935,218.0946 757.9915,232.3722 772.0569,248.5162 C786.0756,264.6066 798.1744,282.551 806.7164,302.198 C811.6644,313.5788 815.4189,325.5309 818.1714,337.6901 C821.7744,353.606 823.6604,369.8769 823.6604,386.1888 L823.6604,426.5468 C823.8627,434.3016 820.4099,443.6309 814.1071,450.0553 C807.8043,456.4796 798.6515,459.9991 791.0434,459.7929 z" stroke="#000000" stroke-width="0.24" fill-opacity="0" />
</svg>
